X:1
T:Title
%%score ( 1 2 ) { 3 | 4 }
L:1/8
Q:1/4=113
M:4/4
K:Ab
V:1 treble nm="Grand Piano, Unnamed-000"
V:2 treble 
V:3 treble nm="Choir Pad, Flemming, 11.10.11.6"
V:4 bass 
V:1
 [EA]4 [EA]2 [EA]2 | [EB]4 [EB]4 | [Ec]2 [=EA]2 [FA]2 [FB]2 | [EA]4 [EG]4 | [Ec]4 [Ec]2 [Ec]2 | %5
w: By~Friedrich~Ferdinand~Flemming,~1811 * *|||||
 c3 B [=EB]4 | [FA]3 [FA] [FB]2 [FA]2 | [FA]4 [=EG]4 | [Ec]4 [EA]2 [EA]2 | d3 c [EB]4 | %10
w: |||||
 [Ec]3 [Ec] [=DB]2 [DA]2 | [EG]2 [=DF]2 E4 | [Ec]4 [FA]2 [FB]2 | A4 G4 | [EA]8 |] %15
w: |||||
V:2
 x8 | x8 | x8 | x8 | x8 | =E4 z4 | x8 | x8 | x8 | E4 z4 | x8 | x8 | x8 | E8 | x8 |] %15
V:3
 C4 C2 C2 | D4 D4 | C2 C2 D2 D2 | C4[K:bass] B,4 | A,4 A,2 A,2 | B,3[K:treble] C C4 | C3 C D2 C2 | %7
 C4 C4 | C4 C2 C2 | B,4 B,4 | A,3 A, B,2 B,2 | B,2 A,2 G,4 | A,4[K:treble] A,2 D2 | C4 B,4 | C8 |] %15
V:4
 A,4 A,2 A,2 | G,4 G,4 | A,2 A,2 D,2 D,2 | E,4 E,4 | z8 | G,4 G,4 | F,3 F, F,2 F,2 | C,4 C,4 | %8
 A,,4 A,2 A,2 | G,4 G,4 | z4 F,2 F,2 | E,2 B,,2 E,4 | A,,4 D,2 B,,2 | E,8 | A,,8 |] %15

